Numix/16/status/indicator-keyboard-No-5.svg

<?xml version="1.0" encoding="UTF-8" standalone="no"?>
<svg
   xmlns:dc="http://purl.org/dc/elements/1.1/"
   xmlns:cc="http://creativecommons.org/ns#"
   xmlns:rdf="http://www.w3.org/1999/02/22-rdf-syntax-ns#"
   xmlns:svg="http://www.w3.org/2000/svg"
   xmlns="http://www.w3.org/2000/svg"
   xmlns:sodipodi="http://sodipodi.sourceforge.net/DTD/sodipodi-0.dtd"
   xmlns:inkscape="http://www.inkscape.org/namespaces/inkscape"
   viewBox="0 0 16 16"
   id="svg2"
   version="1.1"
   inkscape:version="0.91 r13725"
   sodipodi:docname="indicator-keyboard-No-5.svg">
  <metadata
     id="metadata14">
    <rdf:RDF>
      <cc:Work
         rdf:about="">
        <dc:format>image/svg+xml</dc:format>
        <dc:type
           rdf:resource="http://purl.org/dc/dcmitype/StillImage" />
      </cc:Work>
    </rdf:RDF>
  </metadata>
  <defs
     id="defs12" />
  <sodipodi:namedview
     pagecolor="#ffffff"
     bordercolor="#666666"
     borderopacity="1"
     objecttolerance="10"
     gridtolerance="10"
     guidetolerance="10"
     inkscape:pageopacity="0"
     inkscape:pageshadow="2"
     inkscape:window-width="640"
     inkscape:window-height="480"
     id="namedview10"
     showgrid="false"
     inkscape:zoom="14.75"
     inkscape:cx="8"
     inkscape:cy="8"
     inkscape:window-x="65"
     inkscape:window-y="24"
     inkscape:window-maximized="0"
     inkscape:current-layer="svg2" />
  <path
     style="fill:#ececec;fill-opacity:1"
     d="M 1.5996094 0 C 0.71320937 2.9605947e-16 0 0.71320937 0 1.5996094 L 0 14.400391 C 2.9605947e-16 15.286791 0.71320937 16 1.5996094 16 L 14.400391 16 C 15.286791 16 16 15.286791 16 14.400391 L 16 1.5996094 C 16 0.71320937 15.286791 0 14.400391 0 L 1.5996094 0 z M 1.1835938 4.859375 L 1.6679688 4.859375 C 1.9739688 5.201375 2.3023906 5.596875 2.6503906 6.046875 C 3.0043906 6.490875 3.3495469 6.9460625 3.6855469 7.4140625 C 4.0215469 7.8760625 4.3330938 8.3294375 4.6210938 8.7734375 C 4.9150937 9.2174375 5.1538438 9.6055469 5.3398438 9.9355469 L 5.3398438 4.859375 L 5.9433594 4.859375 L 5.9433594 11.095703 L 5.4296875 11.095703 C 5.3156875 10.885703 5.1702344 10.639422 4.9902344 10.357422 C 4.8162344 10.075422 4.6240625 9.7750312 4.4140625 9.4570312 C 4.2040625 9.1330312 3.9820469 8.80475 3.7480469 8.46875 C 3.5140469 8.12675 3.2789219 7.7965156 3.0449219 7.4785156 C 2.8169219 7.1545156 2.5930938 6.8503594 2.3710938 6.5683594 C 2.1550938 6.2863594 1.9591562 6.0438437 1.7851562 5.8398438 L 1.7851562 11.095703 L 1.1835938 11.095703 L 1.1835938 4.859375 z M 9.3730469 6.3359375 C 9.6850469 6.3359375 9.9685628 6.395625 10.226562 6.515625 C 10.484563 6.629625 10.706578 6.7937656 10.892578 7.0097656 C 11.084578 7.2197656 11.231984 7.4753906 11.333984 7.7753906 C 11.441984 8.0753906 11.496094 8.4074375 11.496094 8.7734375 C 11.496094 9.1394375 11.441984 9.4734375 11.333984 9.7734375 C 11.231984 10.073438 11.084578 10.327109 10.892578 10.537109 C 10.706578 10.747109 10.484563 10.913203 10.226562 11.033203 C 9.9685628 11.147203 9.6850469 11.203125 9.3730469 11.203125 C 9.0610469 11.203125 8.7755781 11.147203 8.5175781 11.033203 C 8.2595781 10.913203 8.0337969 10.747109 7.8417969 10.537109 C 7.6557969 10.327109 7.5103437 10.073438 7.4023438 9.7734375 C 7.3003438 9.4734375 7.2480469 9.1394375 7.2480469 8.7734375 C 7.2480469 8.4074375 7.3003438 8.0753906 7.4023438 7.7753906 C 7.5103437 7.4753906 7.6557969 7.2197656 7.8417969 7.0097656 C 8.0337969 6.7937656 8.2595781 6.629625 8.5175781 6.515625 C 8.7755781 6.395625 9.0610469 6.3359375 9.3730469 6.3359375 z M 9.3730469 6.8652344 C 8.9110469 6.8652344 8.5453906 7.0406719 8.2753906 7.3886719 C 8.0053906 7.7306719 7.8691406 8.1914375 7.8691406 8.7734375 C 7.8691406 9.3554375 8.0053906 9.818156 8.2753906 10.160156 C 8.5453906 10.502156 8.9110469 10.673828 9.3730469 10.673828 C 9.8350466 10.673828 10.200703 10.502156 10.470703 10.160156 C 10.740703 9.8181561 10.875 9.3554375 10.875 8.7734375 C 10.875 8.1914375 10.740703 7.7306719 10.470703 7.3886719 C 10.200703 7.0406719 9.8350466 6.8652344 9.3730469 6.8652344 z M 12.851562 8.8417969 L 14.677734 8.8417969 L 14.677734 9.1757812 L 13.185547 9.1757812 C 13.181614 9.2498812 13.175735 9.3458906 13.167969 9.4628906 C 13.160169 9.5798906 13.152331 9.6994188 13.144531 9.8242188 C 13.136731 9.9451188 13.126934 10.062681 13.115234 10.175781 C 13.103534 10.288881 13.093738 10.379012 13.085938 10.445312 C 13.386238 10.453112 13.644881 10.490341 13.863281 10.556641 C 14.081681 10.622941 14.261944 10.711119 14.402344 10.824219 C 14.542744 10.937319 14.646591 11.074475 14.712891 11.234375 C 14.783091 11.394275 14.816406 11.572578 14.816406 11.767578 C 14.816406 11.939178 14.788969 12.097894 14.730469 12.246094 C 14.675869 12.394294 14.589656 12.523613 14.472656 12.632812 C 14.355656 12.742012 14.206744 12.828225 14.027344 12.890625 C 13.847944 12.953025 13.636325 12.984375 13.390625 12.984375 C 13.265825 12.984375 13.148262 12.974578 13.039062 12.955078 C 12.933762 12.939478 12.837753 12.919884 12.751953 12.896484 C 12.670053 12.873084 12.599516 12.849572 12.541016 12.826172 C 12.482516 12.802772 12.439409 12.783178 12.412109 12.767578 L 12.511719 12.427734 C 12.535119 12.443334 12.574306 12.462928 12.628906 12.486328 C 12.687406 12.509728 12.754025 12.533241 12.828125 12.556641 C 12.906125 12.576141 12.992338 12.593775 13.085938 12.609375 C 13.183437 12.624975 13.285325 12.632812 13.390625 12.632812 C 13.585625 12.632812 13.7463 12.611259 13.875 12.568359 C 14.0076 12.521559 14.113406 12.458859 14.191406 12.380859 C 14.269406 12.302859 14.324269 12.212728 14.355469 12.111328 C 14.390569 12.006028 14.408203 11.894337 14.408203 11.773438 C 14.408203 11.617437 14.382731 11.476362 14.332031 11.351562 C 14.281331 11.226762 14.1912 11.120956 14.0625 11.035156 C 13.9338 10.949356 13.761369 10.884697 13.542969 10.841797 C 13.324569 10.794997 13.046337 10.771484 12.710938 10.771484 C 12.734337 10.572584 12.753931 10.392316 12.769531 10.228516 C 12.785131 10.060816 12.798847 9.9001469 12.810547 9.7480469 C 12.822247 9.5920469 12.830084 9.4431281 12.833984 9.2988281 C 12.841784 9.1506281 12.847663 8.9977969 12.851562 8.8417969 z "
     id="path4" />
</svg>

<svg xmlns="http://www.w3.org/2000/svg" viewBox="0 0 16 16">
 <path d="m 1.6 0 c -0.886 0 -1.6 0.713 -1.6 1.6 l 0 12.801 c 0 0.886 0.713 1.6 1.6 1.6 l 12.801 0 c 0.886 0 1.6 -0.713 1.6 -1.6 l 0 -12.801 c 0 -0.886 -0.713 -1.6 -1.6 -1.6 l -12.801 0 z m -0.416 4.859 l 0.484 0 c 0.306 0.342 0.634 0.737 0.982 1.188 c 0.354 0.444 0.699 0.899 1.035 1.367 c 0.336 0.462 0.648 0.915 0.936 1.359 c 0.294 0.444 0.533 0.832 0.719 1.162 l 0 -5.076 l 0.604 0 l 0 6.236 l -0.514 0 c -0.114 -0.21 -0.259 -0.456 -0.439 -0.738 c -0.174 -0.282 -0.366 -0.582 -0.576 -0.9 c -0.21 -0.324 -0.432 -0.652 -0.666 -0.988 c -0.234 -0.342 -0.469 -0.672 -0.703 -0.99 c -0.228 -0.324 -0.452 -0.628 -0.674 -0.91 c -0.216 -0.282 -0.412 -0.525 -0.586 -0.729 l 0 5.256 l -0.602 0 l 0 -6.236 z m 8.189 1.477 c 0.312 0 0.596 0.06 0.854 0.18 c 0.258 0.114 0.48 0.278 0.666 0.494 c 0.192 0.21 0.339 0.466 0.441 0.766 c 0.108 0.3 0.162 0.632 0.162 0.998 c 0 0.366 -0.054 0.7 -0.162 1 c -0.102 0.3 -0.249 0.554 -0.441 0.764 c -0.186 0.21 -0.408 0.376 -0.666 0.496 c -0.258 0.114 -0.542 0.17 -0.854 0.17 c -0.312 0 -0.597 -0.056 -0.855 -0.17 c -0.258 -0.12 -0.484 -0.286 -0.676 -0.496 c -0.186 -0.21 -0.331 -0.464 -0.439 -0.764 c -0.102 -0.3 -0.154 -0.634 -0.154 -1 c 0 -0.366 0.052 -0.698 0.154 -0.998 c 0.108 -0.3 0.253 -0.556 0.439 -0.766 c 0.192 -0.216 0.418 -0.38 0.676 -0.494 c 0.258 -0.12 0.543 -0.18 0.855 -0.18 z m 0 0.529 c -0.462 0 -0.828 0.175 -1.098 0.523 c -0.27 0.342 -0.406 0.803 -0.406 1.385 c 0 0.582 0.136 1.045 0.406 1.387 c 0.27 0.342 0.636 0.514 1.098 0.514 c 0.462 0 0.828 -0.172 1.098 -0.514 c 0.27 -0.342 0.404 -0.805 0.404 -1.387 c 0 -0.582 -0.134 -1.043 -0.404 -1.385 c -0.27 -0.348 -0.636 -0.523 -1.098 -0.523 z m 3.479 1.977 l 1.826 0 l 0 0.334 l -1.492 0 c -0.004 0.074 -0.01 0.17 -0.018 0.287 c -0.008 0.117 -0.016 0.237 -0.023 0.361 c -0.008 0.121 -0.018 0.238 -0.029 0.352 c -0.012 0.113 -0.021 0.203 -0.029 0.27 c 0.3 0.008 0.559 0.045 0.777 0.111 c 0.218 0.066 0.399 0.154 0.539 0.268 c 0.14 0.113 0.244 0.25 0.311 0.41 c 0.07 0.16 0.104 0.338 0.104 0.533 c 0 0.172 -0.027 0.33 -0.086 0.479 c -0.055 0.148 -0.141 0.278 -0.258 0.387 c -0.117 0.109 -0.266 0.195 -0.445 0.258 c -0.179 0.062 -0.391 0.094 -0.637 0.094 c -0.125 0 -0.242 -0.01 -0.352 -0.029 c -0.105 -0.016 -0.201 -0.035 -0.287 -0.059 c -0.082 -0.023 -0.152 -0.047 -0.211 -0.07 c -0.059 -0.023 -0.102 -0.043 -0.129 -0.059 l 0.1 -0.34 c 0.023 0.016 0.063 0.035 0.117 0.059 c 0.058 0.023 0.125 0.047 0.199 0.07 c 0.078 0.019 0.164 0.037 0.258 0.053 c 0.097 0.016 0.199 0.023 0.305 0.023 c 0.195 0 0.356 -0.022 0.484 -0.064 c 0.133 -0.047 0.238 -0.109 0.316 -0.188 c 0.078 -0.078 0.133 -0.168 0.164 -0.27 c 0.035 -0.105 0.053 -0.217 0.053 -0.338 c 0 -0.156 -0.025 -0.297 -0.076 -0.422 c -0.051 -0.125 -0.141 -0.231 -0.27 -0.316 c -0.129 -0.086 -0.301 -0.15 -0.52 -0.193 c -0.218 -0.047 -0.497 -0.07 -0.832 -0.07 c 0.023 -0.199 0.043 -0.379 0.059 -0.543 c 0.016 -0.168 0.029 -0.328 0.041 -0.48 c 0.012 -0.156 0.02 -0.305 0.023 -0.449 c 0.008 -0.148 0.014 -0.301 0.018 -0.457 z" style="fill:#ececec;fill-opacity:1"/>
</svg>
